P1 15 33
000000111000000
000001111100000
000001111100000
000001111100000
000001111100010
000001111100111
000001111100111
000001111100111
010001111100111
111001111100111
111001111100111
111001111100111
111001111100111
111001111100111
111001111100111
111001111111111
111001111111110
111001111111100
111001111100000
111111111100000
011111111100000
001111111100000
000001111100000
000001111100000
000001111100000
000001111100000
000001111100000
000001111100000
000001111100000
000001111100000
000001111100000
000001111100000
000001111100000
